app/img/icons/ic--volleyball.svg

<svg xmlns="http://www.w3.org/2000/svg" preserveAspectRatio="xMidYMid" width="30.031" height="29.781" viewBox="0 0 30.031 29.781"><defs><style>.cls-1{fill:#fff;fill-rule:evenodd}</style></defs><path d="M15.004-.011c3.84 0 7.695 1.448 10.631 4.353v.009-.009l.057.066a14.77 14.77 0 0 1 4.331 10.471c0 8.218-6.734 14.898-15.019 14.898-3.847-.008-7.694-1.456-10.614-4.361l-.065-.057a14.838 14.838 0 0 1-4.332-10.48c0-8.209 6.743-14.89 15.011-14.89zm8.343 5.37c0 1.978-.321 3.939-.977 5.834-1.771 5.127-5.914 9.235-11.081 10.993a17.94 17.94 0 0 1-5.89.96c.181.203.369.406.566.602l.049.048a12.838 12.838 0 0 0 5.299 3.158 20.537 20.537 0 0 0 5.069-1.741c3.889-1.929 7.104-5.11 9.04-8.967a19.221 19.221 0 0 0 1.756-5.028 12.811 12.811 0 0 0-3.831-5.859zM4.341 21.73c2.182.163 4.405-.13 6.497-.846 4.773-1.627 8.588-5.411 10.236-10.139a16.409 16.409 0 0 0 .845-6.443A11.915 11.915 0 0 0 17.67 2.56a13.714 13.714 0 0 1-.59 5.24c-1.354 4.329-4.832 7.796-9.212 9.146-1.706.521-3.51.724-5.283.569a11.968 11.968 0 0 0 1.756 4.215zM3.062 10.551a9.426 9.426 0 0 0 2.099-.545v.007A8.904 8.904 0 0 0 10.1 5.107a9.778 9.778 0 0 0 .541-2.074c-3.495 1.269-6.3 4.043-7.579 7.518zm-.427 1.415c-.23.961-.336 1.936-.336 2.913 0 .415.016.838.057 1.253 1.698.179 3.437 0 5.102-.504 3.938-1.205 7.087-4.329 8.317-8.234.501-1.644.665-3.369.492-5.061a12.804 12.804 0 0 0-4.199.276 9.617 9.617 0 0 1-.689 2.994h.017a10.23 10.23 0 0 1-5.735 5.68c-.959.374-1.993.618-3.026.683zm11.894 15.508c.156.017.32.017.475.017 7.005 0 12.706-5.663 12.706-12.612v-.456c-.286.83-.648 1.636-1.05 2.433-2.075 4.118-5.512 7.527-9.662 9.585-.796.399-1.616.749-2.469 1.033z" class="cls-1"/></svg>

<svg xmlns="http://www.w3.org/2000/svg" xmlns:xlink="http://www.w3.org/1999/xlink" preserveAspectRatio="xMidYMid" width="30.031" height="29.781" viewBox="0 0 30.031 29.781">
  <defs>
    <style>
      .cls-1 {
        fill: #fff;
        fill-rule: evenodd;
      }
    </style>
  </defs>
  <path d="M15.004,-0.011 C18.844,-0.011 22.699,1.437 25.635,4.342 L25.635,4.351 L25.635,4.342 L25.692,4.408 C28.588,7.304 30.023,11.104 30.023,14.879 C30.023,23.097 23.289,29.777 15.004,29.777 L15.004,29.777 C11.157,29.769 7.310,28.321 4.390,25.416 L4.325,25.359 C1.437,22.446 -0.007,18.663 -0.007,14.879 C-0.007,6.670 6.736,-0.011 15.004,-0.011 L15.004,-0.011 ZM23.347,5.359 L23.347,5.359 C23.347,7.337 23.026,9.298 22.370,11.193 C20.599,16.320 16.456,20.428 11.289,22.186 C9.386,22.837 7.401,23.154 5.399,23.146 C5.580,23.349 5.768,23.552 5.965,23.748 L6.014,23.796 C7.549,25.310 9.377,26.368 11.313,26.954 C13.060,26.596 14.775,26.018 16.382,25.213 C20.271,23.284 23.486,20.103 25.422,16.246 C26.242,14.652 26.833,12.951 27.178,11.218 C26.480,8.972 25.135,6.897 23.347,5.359 L23.347,5.359 ZM4.341,21.730 L4.341,21.730 C6.523,21.893 8.746,21.600 10.838,20.884 C15.611,19.257 19.426,15.473 21.074,10.745 C21.780,8.671 22.075,6.466 21.919,4.302 C20.607,3.439 19.164,2.854 17.670,2.560 C17.810,4.318 17.621,6.091 17.080,7.800 C15.726,12.129 12.248,15.596 7.868,16.946 C6.162,17.467 4.358,17.670 2.585,17.515 C2.889,19.004 3.480,20.428 4.341,21.730 L4.341,21.730 ZM3.062,10.551 L3.062,10.551 C3.783,10.453 4.480,10.266 5.161,10.006 L5.161,10.013 C7.401,9.118 9.205,7.329 10.100,5.107 C10.353,4.432 10.542,3.740 10.641,3.033 C7.146,4.302 4.341,7.076 3.062,10.551 L3.062,10.551 ZM2.635,11.966 L2.635,11.966 C2.405,12.927 2.299,13.902 2.299,14.879 C2.299,15.294 2.315,15.717 2.356,16.132 C4.054,16.311 5.793,16.132 7.458,15.628 C11.396,14.423 14.545,11.299 15.775,7.394 C16.276,5.750 16.440,4.025 16.267,2.333 C15.849,2.284 15.423,2.268 15.004,2.268 C14.021,2.268 13.036,2.381 12.068,2.609 C12.002,3.634 11.764,4.660 11.379,5.603 L11.396,5.603 C10.353,8.191 8.262,10.266 5.661,11.283 L5.661,11.283 C4.702,11.657 3.668,11.901 2.635,11.966 L2.635,11.966 ZM14.529,27.474 L14.529,27.474 C14.685,27.491 14.849,27.491 15.004,27.491 L15.004,27.491 C22.009,27.491 27.710,21.828 27.710,14.879 C27.710,14.725 27.710,14.570 27.710,14.423 C27.424,15.253 27.062,16.059 26.660,16.856 C24.585,20.974 21.148,24.383 16.998,26.441 C16.202,26.840 15.382,27.190 14.529,27.474 L14.529,27.474 Z" class="cls-1"/>
</svg>
